frontend/public/svg/emojis/grinning-squinting-emoji.svg

<svg width="159" height="156" viewBox="0 0 159 156" fill="none" xmlns="http://www.w3.org/2000/svg">
<path d="M81.1223 128.398C73.0047 128.571 65.1511 127.278 57.888 123.536C46.4002 117.618 39.9802 108.388 40.1299 95.1672C40.1874 90.1109 42.0936 88.3896 47.1824 88.2176C59.5627 87.7992 71.9612 87.6332 84.3144 86.8091C92.0183 86.2952 99.691 84.9748 107.31 83.6327C113.65 82.5161 119.053 86.9751 118.49 93.6545C117.772 103.763 113.361 113.255 106.098 120.323C100.5 125.857 93.4911 127.941 85.8569 128.386C84.2826 128.474 82.7001 128.398 81.1223 128.398ZM53.7392 112.426C69.8343 99.9668 86.2422 96.837 103.957 108.68C107.039 104.001 108.709 98.5329 108.768 92.9299C108.792 90.9486 107.895 89.9891 105.8 90.4523C104.371 90.7683 102.933 91.0391 101.486 91.2648C83.9095 94.0594 66.1933 93.3585 48.5055 93.3599C46.0854 93.3599 45.0141 94.1935 45.3906 96.407C46.4415 102.646 48.6247 108.341 53.7392 112.426V112.426ZM98.0361 115.48C89.2745 106.799 68.6445 107.576 60.6251 116.744C70.2859 122.549 92.8261 121.949 98.0361 115.48Z" fill="black"/>
<path d="M58.0526 60.8127L49.9816 53.2211C46.3772 49.832 46.5282 50.1794 42.9244 46.7882C41.3514 45.3107 40.0804 43.6984 41.7022 41.5532C42.8533 40.0235 45.0825 40.4197 47.2988 42.418C54.4007 48.8191 57.7526 51.4749 64.8335 57.899C67.84 60.6272 67.8976 63.8104 65.0549 66.6855C64.596 67.1825 64.0722 67.6154 63.4975 67.9722C55.2363 72.6628 46.4429 74.7491 36.9486 73.3264C36.511 73.2215 36.0791 73.0943 35.6546 72.9452C33.8121 72.4664 32.6616 71.3539 32.6677 69.3888C32.6211 68.5268 32.9129 67.6806 33.4809 67.0305C34.0489 66.3804 34.8482 65.9777 35.7087 65.9082C40.035 65.2216 44.4046 64.7969 48.7154 64.0338C51.7693 63.4921 54.7569 62.5726 57.7736 61.8217L58.0526 60.8127Z" fill="black"/>
<path d="M105.036 63.7223C110.075 64.0514 114.646 64.3162 119.21 64.6636C121.342 64.7921 123.463 65.0513 125.562 65.4396C127.21 65.7721 128.73 66.8616 128.271 68.6851C127.978 69.8485 126.436 71.0369 122.55 71.7614C121.704 71.9199 108.063 71.9131 99.6301 69.8214C96.375 69.0142 95.8381 65.2662 98.4376 62.3728C102.719 57.6077 101.71 57.8359 106.337 53.406C109.253 50.6141 112.634 48.3043 115.821 45.7975C116.438 45.312 117.088 44.6315 117.784 44.5415C118.84 44.406 122.229 45.503 120.251 47.7356C117.295 50.5017 105.787 62.4872 105.036 63.7223Z" fill="black"/>
<path d="M2.82302 56.8154C-4.18681 84.3665 1.95147 108.671 21.0802 129.067C21.5779 129.594 22.0858 130.12 22.5929 130.624C32.8687 140.899 45.6674 147.244 55.8084 151.659C60.1611 153.559 82.4948 155.868 88.5376 154.968C124.449 149.605 148.081 129.351 156.312 95.4649C157.884 88.8271 158.666 82.0272 158.644 75.206C158.682 59.1373 151.917 40.4562 137.964 26.465C136.527 25.2779 135.096 24.0468 133.711 22.8551C130.71 20.2738 127.607 17.6026 124.361 15.3233C99.563 -2.12951 73.7975 -2.22769 47.7835 7.02823C24.231 15.4032 9.10491 32.1564 2.82302 56.8154ZM47.8845 15.2785C70.7091 5.793 93.6108 4.1191 115.948 18.3256C120.032 20.9259 130.92 29.7268 132.635 31.0479L132.745 31.1299L132.835 31.2301C141.55 40.4711 151.529 57.368 151.308 74.7375C151.236 82.1647 150.23 89.5533 148.315 96.7299C142.642 117.352 129.077 132.382 106.846 142.663C84.2452 153.484 51.8342 142.544 43.2107 136.851C33.6795 130.335 25.3397 122.228 18.5559 112.885C7.91652 97.8214 5.52887 76.1697 11.246 56.3753C13.9217 47.2361 18.5976 38.8068 24.9346 31.6986C31.2717 24.5905 39.1111 18.9815 47.8845 15.2785Z" fill="black"/>
</svg>

<svg xmlns="http://www.w3.org/2000/svg" width="159" height="156" fill="none" viewBox="0 0 159 156"><path fill="#000" d="M81.122 128.398c-8.117.173-15.97-1.12-23.234-4.862C46.4 117.618 39.98 108.388 40.13 95.167c.057-5.056 1.964-6.777 7.052-6.95 12.38-.418 24.78-.584 37.132-1.408 7.704-.514 15.377-1.834 22.996-3.176 6.34-1.117 11.743 3.342 11.18 10.022a41.3 41.3 0 0 1-12.392 26.668c-5.598 5.534-12.607 7.618-20.241 8.063-1.574.088-3.157.012-4.735.012M53.74 112.426c16.095-12.46 32.503-15.589 50.218-3.746a29.2 29.2 0 0 0 4.811-15.75c.024-1.981-.873-2.94-2.968-2.478a70 70 0 0 1-4.314.813c-17.577 2.794-35.293 2.094-52.98 2.095-2.42 0-3.492.834-3.115 3.047 1.05 6.239 3.234 11.934 8.348 16.019m44.297 3.054c-8.761-8.681-29.392-7.904-37.41 1.264 9.66 5.805 32.2 5.205 37.41-1.264M58.053 60.813l-8.071-7.592c-3.605-3.389-3.454-3.042-7.058-6.433-1.573-1.477-2.844-3.09-1.222-5.235 1.151-1.53 3.38-1.133 5.597.865 7.102 6.401 10.454 9.057 17.535 15.481 3.006 2.728 3.064 5.911.22 8.787-.458.496-.982.93-1.556 1.286-8.262 4.69-17.055 6.777-26.55 5.354q-.656-.157-1.293-.38c-1.843-.48-2.993-1.592-2.987-3.557a3.313 3.313 0 0 1 3.04-3.48c4.327-.687 8.697-1.112 13.007-1.875 3.054-.542 6.042-1.461 9.059-2.212zm46.983 2.909c5.039.33 9.61.594 14.174.942 2.132.128 4.253.387 6.352.776 1.648.332 3.168 1.422 2.709 3.245-.293 1.163-1.835 2.352-5.721 3.076-.846.159-14.487.152-22.92-1.94-3.255-.807-3.792-4.555-1.192-7.448 4.281-4.765 3.272-4.537 7.899-8.967 2.916-2.792 6.297-5.102 9.484-7.608.617-.486 1.267-1.166 1.963-1.257 1.056-.135 4.445.962 2.467 3.195-2.956 2.766-14.464 14.751-15.215 15.986"/><path fill="#000" d="M2.823 56.815c-7.01 27.552-.872 51.856 18.257 72.252a69 69 0 0 0 1.513 1.557c10.276 10.275 23.074 16.62 33.215 21.035 4.353 1.9 26.687 4.209 32.73 3.309 35.911-5.363 59.543-25.617 67.774-59.503a86.7 86.7 0 0 0 2.332-20.259c.038-16.069-6.727-34.75-20.68-48.741a279 279 0 0 1-4.253-3.61c-3.001-2.581-6.104-5.252-9.35-7.532C99.563-2.13 73.797-2.227 47.783 7.028 24.231 15.403 9.105 32.156 2.823 56.815M47.885 15.28c22.824-9.486 45.726-11.16 68.063 3.047 4.084 2.6 14.972 11.4 16.687 12.722l.11.082.09.1c8.715 9.241 18.694 26.138 18.473 43.507a88.6 88.6 0 0 1-2.993 21.993c-5.673 20.622-19.238 35.652-41.469 45.933-22.6 10.821-55.012-.119-63.635-5.812a100.7 100.7 0 0 1-24.655-23.966c-10.64-15.064-13.027-36.715-7.31-56.51A64.18 64.18 0 0 1 47.885 15.28"/></svg>
